images/logo-hover.svg

<?xml version="1.0" encoding="UTF-8" standalone="no"?>
<svg width="64px" height="26px" viewBox="0 0 64 26" version="1.1" xmlns="http://www.w3.org/2000/svg" xmlns:xlink="http://www.w3.org/1999/xlink" xmlns:sketch="http://www.bohemiancoding.com/sketch/ns">
    <!-- Generator: Sketch 3.5 (25232) - http://www.bohemiancoding.com/sketch -->
    <title>logo-color</title>
    <desc>Created with Sketch.</desc>
    <defs></defs>
    <g id="Landing" stroke="none" stroke-width="1" fill="none" fill-rule="evenodd" sketch:type="MSPage">
        <g id="landing-try-it-free-full-01" sketch:type="MSArtboardGroup" transform="translate(-1735.000000, -1024.000000)">
            <g id="smartpeople" sketch:type="MSLayerGroup" transform="translate(1715.000000, 1004.000000)">
                <g id="logo-color" transform="translate(20.000000, 20.000000)" sketch:type="MSShapeGroup">
                    <g id="Layer_5">
                        <path d="M12.0563283,17.3430473 L10.9569474,17.3430473 L10.9569474,18.4149212 L10.9569474,24.925394 L10.9569474,25.9977233 L12.0563283,25.9977233 L17.6002304,25.9977233 L17.6002304,23.8539755 L13.1547876,23.8539755 L13.1547876,22.7420315 L16.1806192,22.7420315 L16.1806192,20.5978284 L13.1547876,20.5978284 L13.1547876,19.4867951 L17.6002304,19.4867951 L17.6002304,17.3430473 L12.0563283,17.3430473 L12.0563283,17.3430473 Z" id="Shape" fill="#D9D7D5"></path>
                        <path d="M47.1406767,17.3421366 L47.1406767,25.9977233 L53.7834989,25.9977233 L53.7834989,23.8476007 L49.3352916,23.8476007 L49.3352916,17.3421366 L47.1406767,17.3421366 L47.1406767,17.3421366 Z" id="Shape" fill="#D9D7D5"></path>
                        <path d="M37.7111591,21.749387 L39.0934485,21.749387 L39.0934485,21.7534851 C39.4041996,21.7530324 39.7022266,21.6314609 39.9228222,21.4151664 C40.145517,21.2016121 40.2720295,20.9085772 40.2739237,20.6019264 L40.2702376,20.6019264 L40.2702376,20.5991944 L40.2739237,20.5991944 C40.2727626,20.293879 40.1477889,20.0017685 39.926969,19.7882312 C39.7054167,19.5703987 39.4059729,19.4475483 39.0934485,19.4462697 L39.0934485,19.4499124 L39.0934485,19.4499124 L39.0934485,19.4462697 L37.7111591,19.4462697 L37.7111591,21.7489317 L37.7111591,21.749387 Z M37.7060907,25.9977233 L35.5455724,25.9977233 L35.5455724,17.3494221 L39.0934485,17.3494221 L39.0934485,17.345324 L39.0934485,17.345324 L39.0934485,17.3494221 C39.97375,17.348313 40.8190329,17.6900714 41.4461051,18.3006305 C42.0718467,18.9066646 42.4251138,19.7356378 42.4266091,20.6014711 L42.4307559,20.6014711 L42.4307559,20.6042032 L42.4266091,20.6042032 C42.4258097,21.4675377 42.0741987,22.2943873 41.4507127,22.8991243 C40.8228193,23.5124301 39.9753657,23.8560627 39.092527,23.8553415 L39.092527,23.8589842 L37.7065515,23.8589842 L37.7065515,25.9990893 L37.7060907,25.9977233 Z" id="Shape" fill="#D9D7D5"></path>
                        <path d="M2.16051836,21.749387 L3.54649388,21.749387 L3.54649388,21.7534851 C3.85719539,21.7527865 4.15513166,21.6312521 4.37586753,21.4151664 C4.59813199,21.2013592 4.72442544,20.9084473 4.72650828,20.6019264 L4.72236141,20.6019264 L4.72236141,20.5991944 L4.72650828,20.5991944 C4.72548432,20.2937604 4.6003,20.0015457 4.37909287,19.7882312 C4.15756867,19.570357 3.8581067,19.4474992 3.54557235,19.4462697 L3.54557235,19.4499124 L3.54557235,19.4499124 L3.54557235,19.4462697 L2.16051836,19.4462697 L2.16051836,21.7489317 L2.16051836,21.749387 Z M2.16051836,25.9977233 L0,25.9977233 L0,17.3494221 L3.54557235,17.3494221 L3.54557235,17.345324 L3.54557235,17.345324 L3.54557235,17.3494221 C4.4260041,17.3483407 5.27142016,17.690086 5.8986897,18.3006305 C6.52443678,18.906623 6.87756623,19.7356625 6.8787329,20.6014711 L6.88610511,20.6014711 L6.88610511,20.6042032 L6.88149748,20.6042032 C6.88087131,21.4674818 6.52942231,22.2943409 5.90606192,22.8991243 C5.27814037,23.5123881 4.43070508,23.8560134 3.54787617,23.8553415 L3.54787617,23.8589842 L2.16051836,23.8589842 L2.16051836,25.9990893 L2.16051836,25.9977233 Z" id="Shape" fill="#D9D7D5"></path>
                        <path d="M26.2109719,19.482697 L26.2109719,19.482697 L26.2109719,19.4867951 L26.2141973,19.4867951 L26.2141973,19.482697 C26.8064924,19.4822779 27.3751144,19.7124489 27.7969186,20.1233625 L27.7969186,20.1233625 C28.2175811,20.5295694 28.4554852,21.085749 28.4571922,21.6669702 L28.44982,21.6669702 L28.44982,21.6697023 L28.4544276,21.6697023 C28.4525214,22.2501691 28.214988,22.805602 27.7950756,23.2114886 C27.3744046,23.6239757 26.8058847,23.8555486 26.2132757,23.8557968 L26.2132757,23.8516988 L26.2105112,23.8516988 L26.2105112,23.8557968 C25.618333,23.8556496 25.0501704,23.6244146 24.6296328,23.2123993 C24.2088393,22.8062808 23.9709108,22.2500442 23.9693593,21.6687916 L23.9735061,21.6687916 L23.9735061,21.6660595 L23.9693593,21.6660595 C23.9710387,21.0854138 24.208598,20.5297564 24.6287113,20.1238179 C25.0497007,19.711916 25.6180928,19.4807224 26.2105112,19.4804203 L26.2109719,19.482697 Z M26.2105112,17.3403152 L26.2105112,17.3403152 L26.2105112,17.3444133 C25.0384685,17.3413262 23.9125345,17.7954001 23.0773218,18.607986 C22.2478145,19.4140881 21.7810812,20.5159153 21.7821166,21.6656042 L21.7779698,21.6656042 L21.7779698,21.6683363 L21.7821166,21.6683363 C21.7811571,22.8185437 22.2478402,23.9209086 23.0773218,24.7277758 C23.9128514,25.5397766 25.0386578,25.9934718 26.2105112,25.9904378 L26.2105112,25.9945359 L26.2132757,25.9945359 L26.2132757,25.9904378 C27.3862102,25.9941525 28.5131475,25.5398443 29.3487689,24.7264098 C30.1778615,23.9202547 30.6443909,22.8186809 30.6435133,21.6692469 L30.6476602,21.6692469 L30.6476602,21.6665149 L30.6435133,21.6665149 C30.6446947,20.5163067 30.1777786,19.4139477 29.3478474,18.6075306 L29.3441613,18.6075306 C28.5098086,17.795679 27.3851069,17.3417983 26.2141973,17.3444133 L26.2141973,17.3403152 L26.2141973,17.3403152 L26.2105112,17.3403152 Z" id="Shape" fill="#D9D7D5"></path>
                        <path d="M58.450108,17.3425919 L57.3507271,17.3425919 L57.3507271,18.4149212 L57.3507271,24.9249387 L57.3507271,25.997268 L58.450108,25.997268 L63.9940101,25.997268 L63.9940101,23.8535201 L59.5490281,23.8535201 L59.5490281,22.7415762 L62.5743988,22.7415762 L62.5743988,20.5978284 L59.5490281,20.5978284 L59.5490281,19.4863398 L63.9940101,19.4863398 L63.9940101,17.3425919 L58.450108,17.3425919 L58.450108,17.3425919 Z" id="Shape" fill="#D9D7D5"></path>
                        <path d="M34.0877178,0.0191243433 L24.6881497,13.1329597 L28.3489129,13.1329597 L29.8233549,11.0839229 L34.8806911,11.0702627 L34.8806911,13.1192995 L38.2097048,13.1192995 L38.2097048,0.00546409807 L34.0877178,0.0191243433 Z M35.017077,8.06045534 L32.1142693,8.06045534 L35.0336645,4.12630473 L35.017077,8.06045534 Z" id="Shape" fill="#C22821"></path>
                        <path d="M7.99562275,4.91859895 L5.5075018,4.91859895 C5.04945138,4.91859895 4.67812815,4.55164494 4.67812815,4.09898424 C4.67812815,3.64637478 5.04950324,3.27936953 5.95029518,3.27936953 L10.1202016,3.27936953 L11.7789489,0.000910683012 L5.95029518,0.000910683012 C2.77102952,0.000910683012 1.36063355,2.04994746 1.36063355,4.09898424 C1.36063355,6.08063047 2.93183585,8.19705779 5.5075018,8.19705779 L7.99562275,8.19705779 C8.45367317,8.19705779 8.8249964,8.5640118 8.8249964,9.0166725 C8.8249964,9.46933321 8.45367317,9.83628722 7.99562275,9.83628722 L2.05177826,9.83628722 L0.393030958,13.1147461 L7.99562275,13.1147461 C9.15213823,13.1147461 10.2118934,12.6953765 10.9795248,11.9345009 C11.7471562,11.1736252 12.1655292,10.1318039 12.1655292,8.99390543 C12.1655292,6.64388792 10.3726998,4.91859895 7.99562275,4.91859895 L7.99562275,4.91859895 Z" id="Shape" fill="#C22821"></path>
                        <path d="M41.2429086,6.14802102 L45.7390353,6.14802102 L45.7390353,6.1543958 C46.1081429,6.15193071 46.4601328,6.00022022 46.7130886,5.73457093 C46.9774122,5.46413481 47.1259569,5.1033408 47.1277754,4.72735552 L47.1213247,4.72735552 L47.1213247,4.72325744 L47.1277754,4.72325744 C47.1275825,4.34988218 46.9814963,3.99100301 46.72,3.72150613 C46.4666988,3.45371799 46.1136287,3.29990556 45.7427214,3.29576182 L45.7427214,3.3021366 L41.2452124,3.3021366 L39.4376386,0.0464448336 L45.7381138,0.0514535902 L45.7404176,0.0514535902 L45.7404176,0.0578283713 C46.9480021,0.0621329231 48.1011678,0.554762531 48.9316631,1.42112084 C49.788631,2.31031487 50.2651648,3.49211705 50.2618862,4.72007005 L50.2678762,4.72007005 L50.2678762,4.72416813 L50.2618862,4.72416813 C50.2663483,5.94853117 49.7924717,7.12735695 48.9390353,8.01492119 C48.1916775,8.7862697 46.9577538,9.28987741 45.8408639,9.3732049 L50.017221,13.1566375 L45.4012959,13.1566375 L41.2433693,9.39187391 L41.2433693,6.14802102 L41.2429086,6.14802102 Z" id="Shape" fill="#C22821"></path>
                        <path d="M50.0835709,0.0122942207 L50.0835709,0.0122942207 C51.0930881,0.866524643 51.8040256,2.01384126 52.1150756,3.29075306 L55.0358531,3.29075306 L55.0358531,13.1261296 L58.76527,13.1233975 L58.76527,3.28802102 L61.9178114,3.29075306 L63.9940101,0.0122942207 L50.0835709,0.0122942207 L50.0835709,0.0122942207 Z" id="Shape" fill="#C22821"></path>
                        <path d="M24.425054,0.0118388792 L21.0628654,4.10991243 L17.7453708,0.0118388792 L14.0131893,0.0118388792 L14.0131893,13.1256743 L17.3389777,13.1256743 L17.3306839,5.3393345 L21.0633261,9.63912434 L24.7950468,5.39670753 L24.7950468,10.2615762 L28.1572354,5.71225919 L28.1572354,0.0478108581 L24.425054,0.0118388792 L24.425054,0.0118388792 Z" id="Shape" fill="#C22821"></path>
                    </g>
                </g>
            </g>
        </g>
    </g>
</svg>

<svg width="64" height="26" viewBox="0 0 64 26" xmlns="http://www.w3.org/2000/svg"><title>logo-color</title><g fill="none" fill-rule="evenodd"><path d="M12.056 17.343h-1.1v8.655H17.6v-2.144h-4.445v-1.112h3.026v-2.144h-3.025v-1.11H17.6v-2.145h-5.544zM47.14 17.342v8.656h6.643v-2.15h-4.448v-6.506H47.14zM37.71 21.75h1.383v.003c.31 0 .61-.122.83-.338.223-.213.35-.506.35-.813h-.003V20.6h.004c0-.306-.126-.598-.347-.812-.222-.218-.52-.34-.834-.342v.004-.004H37.71v2.303zm-.004 4.248h-2.16v-8.65h3.547v-.003.004c.88-.002 1.726.34 2.353.95.626.607.98 1.436.98 2.3h.005v.004h-.003c0 .864-.353 1.69-.976 2.295-.627.612-1.475.956-2.357.955v.004h-1.386V26v-.002zM2.16 21.75h1.386v.003c.31 0 .61-.122.83-.338.222-.214.348-.507.35-.813h-.004V20.6h.005c-.002-.306-.127-.598-.348-.812-.222-.218-.522-.34-.834-.342v.004-.004H2.16v2.303zm0 4.248H0v-8.65h3.546v-.003.004c.88-.002 1.725.34 2.353.95.624.607.978 1.436.98 2.3h.006v.004H6.88c0 .863-.35 1.69-.974 2.295-.628.612-1.475.956-2.358.955v.004H2.16V26v-.002zM26.21 19.483v.004h.004v-.004c.592 0 1.16.23 1.583.64.42.407.658.963.66 1.544h-.007v.003h.004c0 .58-.24 1.136-.66 1.54-.42.414-.988.646-1.58.646v-.004h-.003v.004c-.592 0-1.16-.232-1.58-.644-.42-.406-.66-.962-.66-1.543h.004v-.004h-.005c0-.58.24-1.136.66-1.542.42-.412.988-.643 1.58-.644v.003zm0-2.143v.004c-1.172-.003-2.297.45-3.133 1.264-.83.806-1.296 1.908-1.295 3.058h-.004v.002h.004c0 1.15.466 2.253 1.295 3.06.836.812 1.962 1.265 3.134 1.262v.005h.003v-.005c1.173.004 2.3-.45 3.136-1.264.828-.806 1.294-1.907 1.294-3.057h.004v-.003h-.004c0-1.15-.466-2.253-1.296-3.06h-.004c-.834-.81-1.96-1.265-3.13-1.263v-.004h-.003zM58.45 17.343h-1.1v8.654h6.644v-2.143H59.55v-1.112h3.024v-2.144H59.55v-1.112h4.444v-2.143H58.45z" fill="#D9D7D5"/><path d="M34.088.02l-9.4 13.113h3.66l1.475-2.05 5.058-.013v2.05h3.33V.004L34.088.02zm.93 8.04h-2.904l2.92-3.934-.017 3.934zM7.996 4.92H5.508c-.46 0-.83-.368-.83-.82 0-.454.372-.82 1.272-.82h4.17L11.78 0H5.95C2.77 0 1.36 2.05 1.36 4.1c0 1.98 1.572 4.097 4.148 4.097h2.488c.458 0 .83.367.83.82 0 .452-.372.82-.83.82H2.052l-1.66 3.278h7.604c1.156 0 2.216-.42 2.984-1.18.767-.76 1.186-1.803 1.186-2.94 0-2.35-1.793-4.076-4.17-4.076zM41.243 6.148h4.496v.006c.368-.002.72-.154.973-.42.264-.27.413-.63.415-1.007h-.007v-.004h.008c0-.373-.147-.732-.408-1-.253-.27-.606-.423-.977-.427v.006h-4.498L39.438.046l6.3.005h.002V.06c1.208.004 2.36.497 3.192 1.363.857.89 1.333 2.072 1.33 3.3h.006v.004h-.006c.004 1.225-.47 2.403-1.323 3.29-.748.772-1.982 1.276-3.1 1.36l4.177 3.783H45.4l-4.157-3.765V6.148zM50.084.012c1.01.855 1.72 2.002 2.03 3.28h2.922v9.834l3.73-.003V3.288l3.152.003L63.994.013h-13.91zM24.425.012L21.063 4.11 17.745.012h-3.732v13.114h3.326l-.01-7.787 3.733 4.3 3.732-4.243v4.865l3.362-4.55V.048L24.425.012z" fill="#C22821"/></g></svg>
